docs/img/creatively.svg

<svg width="104" height="104" viewBox="0 0 104 104" fill="none" xmlns="http://www.w3.org/2000/svg">
<path fill-rule="evenodd" clip-rule="evenodd" d="M5.43019 88.7246C4.45119 91.4226 5.04319 94.5626 7.20719 96.7266C9.37119 98.8906 12.5112 99.4816 15.2092 98.5026" fill="#F7941E"/>
<path fill-rule="evenodd" clip-rule="evenodd" d="M41.8913 86.9125C46.8853 83.6445 52.4072 81.2035 58.2243 79.6335C62.7363 78.4155 66.9992 76.0355 70.5412 72.4935C81.5922 61.4435 81.3333 43.3665 69.7653 32.6445C59.0872 22.7495 42.3713 22.9015 31.8643 32.9775C28.0613 36.6245 25.5322 41.0825 24.2752 45.8085C22.7343 51.5995 20.2922 57.0885 17.0312 62.0525L41.8913 86.9125Z" fill="#FFC105"/>
<path fill-rule="evenodd" clip-rule="evenodd" d="M42.5344 69.3858L34.5474 61.3998C33.2464 60.0978 31.1374 60.0978 29.8364 61.3998L23.1074 68.1278L35.8054 80.8268L42.5344 74.0978C43.8354 72.7968 43.8354 70.6878 42.5344 69.3858Z" fill="#F7941E"/>
<path fill-rule="evenodd" clip-rule="evenodd" d="M43.394 58.1409L31.513 70.0219C30.881 70.6539 29.856 70.6559 29.222 70.0219C28.59 69.3889 28.59 68.3629 29.222 67.7309L40.789 56.1639L43.805 44.4009C44.029 43.5359 44.911 43.0109 45.778 43.2339C46.644 43.4549 47.166 44.3379 46.943 45.2049L43.818 57.3989C43.745 57.6789 43.599 57.9359 43.394 58.1409Z" fill="white"/>
<path fill-rule="evenodd" clip-rule="evenodd" d="M59.5325 60.1291L47.7685 63.1451L36.2025 74.7111C35.5705 75.3431 34.5445 75.3431 33.9115 74.7111C33.2795 74.0791 33.2795 73.0531 33.9115 72.4201L45.7925 60.5391C45.9975 60.3351 46.2545 60.1891 46.5365 60.1161L58.7275 56.9901C59.5945 56.7681 60.4775 57.2891 60.6995 58.1551C60.9225 59.0231 60.3995 59.9051 59.5325 60.1291Z" fill="white"/>
<path fill-rule="evenodd" clip-rule="evenodd" d="M35.051 61.9014L37.342 64.1924L31.513 70.0214C30.881 70.6534 29.856 70.6554 29.222 70.0214C28.59 69.3884 28.59 68.3624 29.222 67.7304L35.051 61.9014Z" fill="white"/>
<path fill-rule="evenodd" clip-rule="evenodd" d="M42.0315 68.8823L36.2025 74.7113C35.5705 75.3433 34.5445 75.3433 33.9115 74.7113C33.2795 74.0793 33.2795 73.0533 33.9115 72.4203L39.7405 66.5913L42.0315 68.8823Z" fill="white"/>
<path fill-rule="evenodd" clip-rule="evenodd" d="M40.7508 84.2453L19.6877 63.1833C17.8748 61.3693 14.9348 61.3693 13.1228 63.1833L12.9008 63.4033C11.3267 64.9773 11.1237 67.4013 12.2847 69.1993C10.4867 68.0383 8.06375 68.2403 6.48875 69.8153L6.26875 70.0363C4.45575 71.8493 4.45575 74.7893 6.26875 76.6013L7.05475 77.3883C5.29575 76.4413 3.06475 76.6893 1.58075 78.1743L1.35975 78.3943C-0.45325 80.2073 -0.45325 83.1463 1.35975 84.9593L18.9737 102.573C20.7867 104.386 23.7257 104.386 25.5387 102.573L25.7598 102.352C27.2437 100.868 27.4918 98.6373 26.5448 96.8793L27.3318 97.6653C29.1448 99.4773 32.0838 99.4773 33.8968 97.6653L34.1177 97.4443C35.6917 95.8693 35.8947 93.4463 34.7337 91.6473C36.5317 92.8093 38.9548 92.6063 40.5298 91.0313L40.7508 90.8103C42.5628 88.9983 42.5628 86.0583 40.7508 84.2453Z" fill="#F15A28"/>
<mask id="mask0_0_2420" style="mask-type:alpha" maskUnits="userSpaceOnUse" x="82" y="39" width="22" height="11">
<path fill-rule="evenodd" clip-rule="evenodd" d="M103.898 39.0049V49.9505H82.7422V39.0049H103.898V39.0049Z" fill="white"/>
</mask>
<g mask="url(#mask0_0_2420)">
<path fill-rule="evenodd" clip-rule="evenodd" d="M83.797 48.8908C83.327 48.4208 82.982 47.8168 82.828 47.1198C82.398 45.1748 83.626 43.2478 85.571 42.8178C90.153 41.8038 94.741 40.5778 99.206 39.1718C101.107 38.5748 103.133 39.6298 103.731 41.5308C104.33 43.4318 103.274 45.4568 101.373 46.0558C96.708 47.5248 91.917 48.8058 87.131 49.8648C85.88 50.1408 84.639 49.7328 83.797 48.8908Z" fill="#F9CA55"/>
</g>
<path fill-rule="evenodd" clip-rule="evenodd" d="M75.8308 31.7365C75.1848 31.5825 74.5738 31.2485 74.0788 30.7355C72.6938 29.3025 72.7318 27.0185 74.1638 25.6325C77.5378 22.3715 80.8048 18.9245 83.8738 15.3905C85.1808 13.8855 87.4598 13.7245 88.9638 15.0315C90.4698 16.3385 90.6298 18.6175 89.3238 20.1225C86.1178 23.8145 82.7048 27.4145 79.1818 30.8215C78.2608 31.7115 76.9898 32.0135 75.8308 31.7365Z" fill="#F9CA55"/>
<path fill-rule="evenodd" clip-rule="evenodd" d="M81.2779 68.5039C81.0279 67.8889 80.9449 67.1969 81.0739 66.4959C81.4339 64.5359 83.3159 63.2389 85.2749 63.5999C89.8909 64.4479 94.5939 65.1039 99.2539 65.5459C101.238 65.7349 102.694 67.4959 102.505 69.4799C102.317 71.4639 100.556 72.9189 98.5719 72.7319C93.7039 72.2689 88.7909 71.5849 83.9699 70.6979C82.7109 70.4659 81.7259 69.6079 81.2779 68.5039Z" fill="#F9CA55"/>
<mask id="mask1_0_2420" style="mask-type:alpha" maskUnits="userSpaceOnUse" x="54" y="1" width="12" height="22">
<path fill-rule="evenodd" clip-rule="evenodd" d="M54.9668 1H65.9128V22.1565H54.9668V1L54.9668 1Z" fill="white"/>
</mask>
<g mask="url(#mask1_0_2420)">
<path fill-rule="evenodd" clip-rule="evenodd" d="M55.0525 17.7678C56.1115 12.9818 57.3935 8.19079 58.8615 3.52579C59.4595 1.62479 61.4865 0.568793 63.3865 1.16679C65.2875 1.76479 66.3435 3.79079 65.7455 5.69279C64.3405 10.1578 63.1135 14.7458 62.0995 19.3278C61.6695 21.2728 59.7425 22.5008 57.7965 22.0708C57.1005 21.9168 56.4965 21.5718 56.0275 21.1018C55.1845 20.2588 54.7765 19.0178 55.0525 17.7678Z" fill="#F9CA55"/>
</g>
<path fill-rule="evenodd" clip-rule="evenodd" d="M34.2193 20.9286C33.3323 16.1076 32.6493 11.1946 32.1863 6.32562C31.9983 4.34262 33.4543 2.58162 35.4383 2.39362C37.4213 2.20362 39.1823 3.65962 39.3713 5.64462C39.8143 10.3046 40.4693 15.0076 41.3183 19.6226C41.6783 21.5826 40.3813 23.4636 38.4213 23.8246C37.7203 23.9536 37.0293 23.8696 36.4143 23.6196C35.3103 23.1716 34.4513 22.1876 34.2193 20.9286Z" fill="#F9CA55"/>
</svg>

<svg width="104" height="104" viewBox="0 0 104 104" fill="none" xmlns="http://www.w3.org/2000/svg"><path fill-rule="evenodd" clip-rule="evenodd" d="M5.43 88.725a7.63 7.63 0 009.78 9.778" fill="#F7941E"/><path fill-rule="evenodd" clip-rule="evenodd" d="M41.891 86.912c4.994-3.268 10.516-5.709 16.333-7.279a27.517 27.517 0 0012.317-7.14c11.051-11.05 10.792-29.126-.776-39.848-10.678-9.896-27.394-9.744-37.9.332a27.533 27.533 0 00-7.59 12.832 55.63 55.63 0 01-7.244 16.244l24.86 24.86z" fill="#FFC105"/><path fill-rule="evenodd" clip-rule="evenodd" d="M42.534 69.386L34.547 61.4a3.33 3.33 0 00-4.71 0l-6.73 6.728 12.698 12.699 6.73-6.73a3.332 3.332 0 000-4.711z" fill="#F7941E"/><path fill-rule="evenodd" clip-rule="evenodd" d="M43.394 58.14L31.513 70.023a1.62 1.62 0 11-2.291-2.291l11.567-11.567L43.805 44.4a1.623 1.623 0 011.973-1.167 1.617 1.617 0 011.165 1.97L43.818 57.4c-.073.28-.219.537-.424.742zm16.138 1.99L47.77 63.144 36.203 74.711a1.621 1.621 0 01-2.292-2.29l11.881-11.882a1.64 1.64 0 01.744-.423l12.191-3.126a1.62 1.62 0 11.806 3.14z" fill="#fff"/><path fill-rule="evenodd" clip-rule="evenodd" d="M35.051 61.901l2.291 2.291-5.829 5.83a1.62 1.62 0 11-2.291-2.292l5.829-5.829zm6.981 6.981l-5.83 5.83a1.621 1.621 0 01-2.29-2.292l5.828-5.829 2.291 2.291z" fill="#fff"/><path fill-rule="evenodd" clip-rule="evenodd" d="M40.75 84.245L19.689 63.183a4.64 4.64 0 00-6.565 0l-.222.22a4.642 4.642 0 00-.616 5.796 4.64 4.64 0 00-5.796.616l-.22.221a4.642 4.642 0 000 6.565l.786.787c-1.76-.947-3.99-.699-5.474.786l-.221.22a4.642 4.642 0 000 6.565l17.614 17.614a4.642 4.642 0 006.565 0l.22-.221c1.485-1.484 1.733-3.715.786-5.473l.787.786a4.644 4.644 0 006.565 0l.22-.22a4.643 4.643 0 00.617-5.798 4.64 4.64 0 005.796-.616l.22-.22a4.644 4.644 0 000-6.566z" fill="#F15A28"/><mask id="mask0_0_2420" style="mask-type:alpha" maskUnits="userSpaceOnUse" x="82" y="39" width="22" height="11"><path fill-rule="evenodd" clip-rule="evenodd" d="M103.898 39.005V49.95H82.742V39.005h21.156z" fill="#fff"/></mask><g mask="url(#mask0_0_2420)"><path fill-rule="evenodd" clip-rule="evenodd" d="M83.797 48.89a3.608 3.608 0 011.774-6.073c4.582-1.013 9.17-2.24 13.635-3.645a3.61 3.61 0 012.167 6.884 169.611 169.611 0 01-14.242 3.809 3.607 3.607 0 01-3.334-.974z" fill="#F9CA55"/></g><path fill-rule="evenodd" clip-rule="evenodd" d="M75.83 31.736a3.61 3.61 0 01-1.667-6.104 162.344 162.344 0 009.71-10.242 3.609 3.609 0 015.45 4.732 170.081 170.081 0 01-10.141 10.7 3.606 3.606 0 01-3.351.915zm5.448 36.768a3.608 3.608 0 013.997-4.904c4.616.848 9.319 1.504 13.979 1.946a3.609 3.609 0 01-.682 7.186 169.983 169.983 0 01-14.602-2.034 3.605 3.605 0 01-2.692-2.194z" fill="#F9CA55"/><mask id="mask1_0_2420" style="mask-type:alpha" maskUnits="userSpaceOnUse" x="54" y="1" width="12" height="22"><path fill-rule="evenodd" clip-rule="evenodd" d="M54.967 1h10.946v21.157H54.967V1z" fill="#fff"/></mask><g mask="url(#mask1_0_2420)"><path fill-rule="evenodd" clip-rule="evenodd" d="M55.053 17.768a169.995 169.995 0 013.809-14.242 3.609 3.609 0 116.884 2.167A162.847 162.847 0 0062.1 19.328a3.609 3.609 0 01-7.047-1.56z" fill="#F9CA55"/></g><path fill-rule="evenodd" clip-rule="evenodd" d="M34.22 20.929a169.948 169.948 0 01-2.034-14.603 3.608 3.608 0 017.185-.681c.443 4.66 1.098 9.363 1.947 13.978a3.61 3.61 0 01-7.099 1.306z" fill="#F9CA55"/></svg>
